X:1
T:Partition sans titre
C:Compositeur / Arrangeur
L:1/8
M:4/4
I:linebreak $
K:G
V:1 treble nm="Violon" snm="Vln."
V:1
"Em" E2 B,E G2 EG | B2 GB d2 ^cB |"D" AFFF DFFF | GFFF GAGF |"Em" E2 B,E G2 EG | B2 GB d2 ^cB | %6
"D" AFFF DFFF | G2 F2"Em" E4 ::"Em" e2 Be g2 eg | b2 ag"D" f2 ed | d2 Ad f2 df |"Em" b2 ag f2 ed | %12
"Em" e2 Be g2 eg | b2 ag"D" f2 ed |"Em" bagf gfed | e2 B2 E4 :| %16
